source/svgs/bowtie/uE007-select-no-items.svg

<svg xmlns="http://www.w3.org/2000/svg" viewBox="0 0 448 448" enable-background="new 0 0 448 448"><path d="M192 192h-192v-192h192v192zm-160-32h128v-128h-128v128zm416 32h-192v-192h192v192zm-160-32h128v-128h-128v128zm160 288h-192v-192h192v192zm-160-32h128v-128h-128v128zm-96 32h-192v-192h192v192zm-160-32h128v-128h-128v128z"/></svg>

<svg xmlns="http://www.w3.org/2000/svg" viewBox="0 0 448 448"><path d="M192 192H0V0h192v192zM32 160h128V32H32v128zm416 32H256V0h192v192zm-160-32h128V32H288v128zm160 288H256V256h192v192zm-160-32h128V288H288v128zm-96 32H0V256h192v192zM32 416h128V288H32v128z"/></svg>
